X:1
T:[ID 2-63b]
T:[ID 2-63b]
T:Bezeichnung standardisiert: Polonaise Polonoise
T:Urheber unbekannt Datum in der hier transkribierten schriftlichen Quelle: 1767
C:Urheber unbekannt
C:Datum in der hier transkribierten schriftlichen Quelle: 1767
L:1/8
M:3/4
K:G
V:1 treble 
V:1
 G/g/f/g/ b/g/f/e/ dc | BB/d/ c/B/c/A/{A} B2 | G/g/f/g/ b/g/f/e/ dc | B/A/G/F/{F} G4 :: %4
 d2 dc cB/A/ | BB/d/ c/B/c/A/{A} B2 | d2 dc cB/A/ | BB/d/ c/B/c/A/ B2 | G/g/g d/B/B ec | %9
 B/A/G/F/ G2 G,2 :| %10

